X: 12874
T: Ferndene
R: hornpipe
M: 4/4
K: Gmajor
|:(3DEF|G>Bd>g b>gd>B|e>cA>c E2A>G|F>DF>A c>ed>c|(3Bc^c d>e d2(3DEF|
G>Bd>g b>gd>B|e>cA>c E2a>g|f>dc>A F>DE>F|G2B2G2:|
|:d>c|B>DG>B d2 B2|e>cA>c E2A>B|c>ec>A F>DE>F|G>Bd>^c e>d (3B=c^c|
d>DG>B d2B2|e>cA>c E2a>g|f>dc>A F>DE>F|1 G2B2G2:|2 (3GBd (3gdB G2||

